icon-svg/pandatag.svg

<?xml version="1.0" encoding="UTF-8" standalone="no"?>
<svg
   width="24"
   height="24"
   viewBox="0 0 24 24"
   version="1.1"
   xmlns="http://www.w3.org/2000/svg"
   xmlns:svg="http://www.w3.org/2000/svg">
  <path
     style="fill:#44739e"
     d="M 11.400239,21.423898 C 9.2453141,21.330163 7.1302657,20.62489 5.3543596,19.421037 3.994556,18.480043 2.8892112,16.964678 2.6842157,15.262345 2.5232649,13.444954 2.8359096,11.622381 3.2798535,9.8654739 3.6507085,9.1932499 3.6034442,8.721614 2.9265457,8.3389684 1.7711664,7.1344089 1.6643142,5.0680797 2.7869752,3.8002847 3.6759122,2.6611236 5.3816457,2.2080151 6.693492,2.8677797 7.3245345,3.1535356 7.8113968,3.7047007 8.1981202,4.2661916 9.4268513,3.6459414 10.829418,3.4211998 12.203195,3.4059184 c 1.140415,0.057024 2.272737,0.2752879 3.318835,0.7266118 0.567575,0.3554305 0.723407,-0.8265005 1.279404,-0.9668256 0.744683,-0.5760094 1.885923,-0.7766335 2.810146,-0.4389197 1.21151,0.3757106 2.140024,1.4526027 2.351232,2.7232114 0.203451,1.3280305 -0.442111,2.7691551 -1.58783,3.4488216 0.638305,1.5730181 0.872986,3.2664811 0.971673,4.9513461 0.116348,1.496983 -0.285379,3.033677 -1.240682,4.204839 -0.811017,1.004969 -1.866552,1.709358 -3.022022,2.25618 -1.736875,0.854325 -3.730433,1.203044 -5.683712,1.112715 z m 1.554614,-0.947086 c 2.469659,-0.237423 5.034768,-1.195693 6.604719,-3.198303 1.270693,-1.679181 0.936539,-3.906474 0.616938,-5.836768 C 19.798303,8.6944497 17.966515,6.2072609 15.425273,5.0822008 12.187694,3.5651629 8.0210053,4.4532755 5.7252749,7.2076028 4.3112955,8.7775077 3.8103684,10.901052 3.6137502,12.948306 c -0.2523467,1.711445 -0.02288,3.644725 1.2914992,4.897315 2.0936831,2.028904 5.1923206,2.840767 8.0496036,2.631191 z M 10.657376,17.424304 C 9.8348892,17.282869 8.9060288,16.789581 8.666472,15.945332 c 0.5483292,-0.830051 1.1151803,0.897949 1.920608,0.77341 0.838418,0.387692 1.313317,-0.486929 1.022762,-1.106222 -0.53625,-0.388235 -1.9755429,-1.277076 -0.986963,-1.89702 0.938481,-0.161914 1.988483,-0.230836 2.899744,0.07238 0.685177,0.817946 -0.7633,1.413199 -1.199058,1.905202 -0.245628,0.876126 0.573835,1.353365 1.357774,0.929014 0.5979,-0.06812 1.4568,-1.711719 1.609235,-0.469052 -0.647051,1.060774 -2.085861,1.580189 -3.253556,1.140225 -0.435513,0.172681 -0.919692,0.171726 -1.379642,0.131037 z m 5.439496,-2.270086 c -0.649355,-0.868999 1.215688,-1.19685 1.355195,-2.089971 0.985462,-1.612788 0.219207,-3.8430836 -1.359512,-4.7686028 -0.705066,-0.7798647 0.7281,-0.8846673 1.047552,-0.2367928 1.760554,1.4080914 2.109729,4.2581706 0.629858,5.9866776 -0.427297,0.448182 -1.005051,1.194546 -1.673093,1.108689 z M 6.8536468,14.390809 C 5.6267363,14.223121 4.9102228,12.885908 5.1897051,11.73475 5.4660644,9.886267 7.1985678,8.0436155 9.1800926,8.3559189 c 1.2220034,0.1416486 1.8723794,1.4781709 1.6340234,2.5994181 -0.310918,1.629347 -1.6196215,3.207238 -3.3188939,3.440454 -0.2136853,0.0083 -0.4282365,0.01433 -0.6415753,-0.005 z m 0.615828,-2.548083 C 7.8160405,10.799504 8.9372762,11.061921 9.3300306,11.866036 10.115497,11.3031 8.8055349,10.047649 8.0144137,10.412821 7.4636324,10.371111 6.5246515,11.947582 7.4694748,11.842717 Z m 7.7207612,2.089823 C 14.489524,13.155029 16.262627,12.82209 16.230798,11.92863 16.56717,10.883521 15.852963,9.9131493 14.999,9.4086616 c 0.111038,-1.3365392 1.684138,0.1543814 1.879864,0.8421624 0.661267,1.319216 -0.04086,2.989511 -1.290508,3.668436 l -0.208817,0.05633 -0.18929,-0.04305 z m -0.796872,-1.402411 c -0.95924,-0.388706 -1.004787,-1.91404 -0.04705,-2.336779 1.036075,-0.2465598 1.553637,1.353825 0.871039,2.019316 -0.190957,0.235292 -0.513628,0.433329 -0.823982,0.317463 z"
   />
</svg>

<svg xmlns="http://www.w3.org/2000/svg" viewBox="0 0 24 24"><path fill="#44739e" d="M11.4 21.424a11.75 11.75 0 0 1-6.046-2.003c-1.36-.941-2.465-2.456-2.67-4.159-.16-1.817.152-3.64.596-5.397.37-.672.323-1.143-.353-1.526-1.156-1.205-1.263-3.27-.14-4.539.889-1.139 2.595-1.592 3.906-.932.632.286 1.118.837 1.505 1.398 1.229-.62 2.631-.845 4.005-.86 1.14.057 2.273.275 3.319.727.568.355.723-.827 1.28-.967.745-.576 1.886-.777 2.811-.44 1.211.376 2.14 1.453 2.35 2.724.204 1.328-.441 2.77-1.587 3.449.638 1.573.873 3.266.972 4.951.116 1.497-.286 3.034-1.241 4.205-.811 1.005-1.867 1.71-3.023 2.256-1.737.855-3.73 1.203-5.684 1.113m1.555-.947c2.47-.238 5.036-1.196 6.606-3.198 1.27-1.68.936-3.907.617-5.837-.379-2.748-2.21-5.235-4.753-6.36-3.237-1.517-7.404-.629-9.7 2.126-1.414 1.57-1.915 3.693-2.111 5.74-.253 1.712-.023 3.645 1.291 4.898 2.094 2.029 5.193 2.84 8.05 2.63m-2.298-3.053c-.822-.141-1.751-.634-1.99-1.479.548-.83 1.115.898 1.92.774.838.387 1.313-.487 1.023-1.106-.536-.389-1.976-1.278-.987-1.898.938-.161 1.988-.23 2.9.073.685.818-.764 1.413-1.2 1.905-.245.876.574 1.353 1.358.93.598-.069 1.457-1.713 1.61-.47-.647 1.06-2.086 1.58-3.254 1.14-.435.173-.92.172-1.38.131m5.44-2.27c-.65-.869 1.216-1.197 1.356-2.09.986-1.613.22-3.843-1.361-4.768-.705-.78.729-.885 1.048-.237 1.761 1.408 2.111 4.258.631 5.987-.428.448-1.006 1.194-1.674 1.108m-9.243-.763c-1.227-.168-1.944-1.505-1.664-2.656.276-1.849 2.009-3.691 3.99-3.38 1.222.143 1.872 1.48 1.634 2.6-.31 1.63-1.62 3.208-3.319 3.44a5 5 0 0 1-.641-.004m.615-2.548c.347-1.043 1.468-.781 1.861.023.785-.563-.524-1.818-1.316-1.453-.55-.042-1.49 1.535-.545 1.43m7.721 2.09c-.7-.778 1.073-1.11 1.04-2.004.337-1.045-.377-2.016-1.231-2.52.111-1.337 1.684.154 1.88.842.662 1.319-.041 2.99-1.29 3.668l-.21.057Zm-.797-1.403c-.959-.389-1.004-1.914-.047-2.337 1.036-.246 1.554 1.354.871 2.02-.19.235-.513.433-.824.317"/></svg>
